X:0327
M:6/8
L:1/8
Q:3/8=120
P:ABA % Aird writes a da capo
K:G
P:A
P:B
d2d e2e|d2g dBG|d2d e2e |dBG A3 |
d2d e2e|d2g g2f|egf ed^c|d3  D3:|

